src/assets/filled/Task.svg

<svg width="24" height="24" viewBox="0 0 24 24"  xmlns="http://www.w3.org/2000/svg">
<path d="M20.0001 19.2601H10.9301C10.4801 19.2601 10.1101 18.8901 10.1101 18.4401C10.1101 17.9901 10.4801 17.6201 10.9301 17.6201H20.0001C20.4501 17.6201 20.8201 17.9901 20.8201 18.4401C20.8201 18.9001 20.4501 19.2601 20.0001 19.2601Z" />
<path d="M20.0001 12.9701H10.9301C10.4801 12.9701 10.1101 12.6001 10.1101 12.1501C10.1101 11.7001 10.4801 11.3301 10.9301 11.3301H20.0001C20.4501 11.3301 20.8201 11.7001 20.8201 12.1501C20.8201 12.6001 20.4501 12.9701 20.0001 12.9701Z" />
<path d="M20.0001 6.67027H10.9301C10.4801 6.67027 10.1101 6.30027 10.1101 5.85027C10.1101 5.40027 10.4801 5.03027 10.9301 5.03027H20.0001C20.4501 5.03027 20.8201 5.40027 20.8201 5.85027C20.8201 6.30027 20.4501 6.67027 20.0001 6.67027Z" />
<path d="M4.90993 8.02992C4.68993 8.02992 4.47993 7.93992 4.32993 7.78992L3.41993 6.87992C3.09993 6.55992 3.09993 6.03992 3.41993 5.71992C3.73993 5.39992 4.25993 5.39992 4.57993 5.71992L4.90993 6.04992L7.04993 3.90992C7.36993 3.58992 7.88993 3.58992 8.20993 3.90992C8.52993 4.22992 8.52993 4.74992 8.20993 5.06992L5.48993 7.78992C5.32993 7.93992 5.12993 8.02992 4.90993 8.02992Z" />
<path d="M4.90993 14.3297C4.69993 14.3297 4.48993 14.2497 4.32993 14.0897L3.41993 13.1797C3.09993 12.8597 3.09993 12.3397 3.41993 12.0197C3.73993 11.6997 4.25993 11.6997 4.57993 12.0197L4.90993 12.3497L7.04993 10.2097C7.36993 9.88973 7.88993 9.88973 8.20993 10.2097C8.52993 10.5297 8.52993 11.0497 8.20993 11.3697L5.48993 14.0897C5.32993 14.2497 5.11993 14.3297 4.90993 14.3297Z" />
<path d="M4.90993 20.3297C4.69993 20.3297 4.48993 20.2497 4.32993 20.0897L3.41993 19.1797C3.09993 18.8597 3.09993 18.3397 3.41993 18.0197C3.73993 17.6997 4.25993 17.6997 4.57993 18.0197L4.90993 18.3497L7.04993 16.2097C7.36993 15.8897 7.88993 15.8897 8.20993 16.2097C8.52993 16.5297 8.52993 17.0497 8.20993 17.3697L5.48993 20.0897C5.32993 20.2497 5.11993 20.3297 4.90993 20.3297Z" />
</svg>

<?xml version="1.0" encoding="UTF-8"?>
<svg width="24" height="24" viewBox="0 0 24 24" xmlns="http://www.w3.org/2000/svg">
 <path d="m20 19.26h-9.07c-0.45 0-0.82-0.37-0.82-0.82s0.37-0.82 0.82-0.82h9.07c0.45 0 0.82 0.37 0.82 0.82 0 0.46-0.37 0.82-0.82 0.82z"/>
 <path d="m20 12.97h-9.07c-0.45 0-0.82-0.37-0.82-0.82s0.37-0.82 0.82-0.82h9.07c0.45 0 0.82 0.37 0.82 0.82s-0.37 0.82-0.82 0.82z"/>
 <path d="m20 6.6703h-9.07c-0.45 0-0.82-0.37-0.82-0.82s0.37-0.82 0.82-0.82h9.07c0.45 0 0.82 0.37 0.82 0.82s-0.37 0.82-0.82 0.82z"/>
 <path d="m4.9099 8.0299c-0.22 0-0.43-0.09-0.58-0.24l-0.91-0.91c-0.32-0.32-0.32-0.84 0-1.16s0.84-0.32 1.16 0l0.33 0.33 2.14-2.14c0.32-0.32 0.84-0.32 1.16 0s0.32 0.84 0 1.16l-2.72 2.72c-0.16 0.15-0.36 0.24-0.58 0.24z"/>
 <path d="m4.9099 14.33c-0.21 0-0.42-0.08-0.58-0.24l-0.91-0.91c-0.32-0.32-0.32-0.84 0-1.16s0.84-0.32 1.16 0l0.33 0.33 2.14-2.14c0.32-0.31997 0.84-0.31997 1.16 0 0.32 0.32 0.32 0.84 0 1.16l-2.72 2.72c-0.16 0.16-0.37 0.24-0.58 0.24z"/>
 <path d="m4.9099 20.33c-0.21 0-0.42-0.08-0.58-0.24l-0.91-0.91c-0.32-0.32-0.32-0.84 0-1.16s0.84-0.32 1.16 0l0.33 0.33 2.14-2.14c0.32-0.32 0.84-0.32 1.16 0s0.32 0.84 0 1.16l-2.72 2.72c-0.16 0.16-0.37 0.24-0.58 0.24z"/>
</svg>
